X:1
T:The Savior Is Risen
T:The Savior Is Risen
T:Niels Jespersön’s Gradual, 1573
T:Frans M. Franzèn, 1811, tr. Ernst W. Olson
T:Public Domain Courtesy of the Cyber Hymnal™
T:Public Domain Courtesy of the Cyber Hymnal™
C:Niels Jespersön’s Gradual, 1573
Z:Public Domain
Z:Courtesy of the Cyber Hymnal™
%%score ( 1 2 ) ( 3 4 )
L:1/8
Q:1/4=115
M:3/4
K:D
V:1 treble 
V:2 treble 
V:3 bass 
V:4 bass 
V:1
 D2 | [EA]2 [CA]2 [FB]2 | [^Ec]2 [CA]2 [=EA]2 | [Fd]2 [Ec]2 [EB]2 | [EA]4 [DF]2 | %5
w: 1.~The|Sav- ior is|ris- en, light|bursts from the|tomb; The|
w: 2.~Light|grap- pled with|dar- kness, death|wres- tled with|life; Now|
w: 3.~Now|God in His|Hea- ven and|man are at|one, The|
w: 4.~’Mid|storms and up-|hea- vals His|Church stands se-|cure. The|
w: 5.~Then|weep not, ye|faith- ful, yield|not to des-|pair: The|
 [B,G]2 [EA]2 [CA]2 | [DB]2 [DA]2 [^DA]2 | [EG]2 [DF]2 E2 | D4 D2 | [EA]2 [CA]2 [FB]2 | %10
w: liv- ing ful-|fill- ment of|Scrip- ture is|come. A-|dored by the|
w: light comes tri-|umph- ant from|out the dread|strife. While|death li- eth|
w: grave is a|path- way, through|Christ, to the|throne. Ye|friends that are|
w: truth of His|Gos- pel shall|ev- er en-|dure. Lo!|un- to all|
w: night soon is|o- ver, the|day shall ap-|pear. Tho’|earth shall em-|
 [^Ec]2 [CA]2 [=EA]2 | [Fd]2 [Ec]2 [EB]2 | [EA]4 [DF]2 | [B,G]2 [EA]2 [CA]2 | [DB]2 [DA]2 [^DA]2 | %15
w: an- gels, the|Vic- tor comes|forth To|claim for His|king- dom the|
w: van- quished, hope|kin- dles a-|gain The|torch of the|faith- ful to|
w: bend- ing in|grief at the|cross, Now|lift your heads|glad- ly, ye|
w: peo- ples His|mes- sage shall|speed, Pro-|claim- ing ’mid|tur- moil the|
w: brace you when|death lays you|low, The|seed of His|sow- ing to|
 [EG]2 [DF]2 E2 | D4 D2 | [CA]2 [DA]2 E2 | [DF]2 [DF]2 [E^G]2 | [EA]2 [DA]2 [DB]2 | [CA]4 [FA]2 | %21
w: ran- somed on|earth. The|seal has been|bro- ken, the|stone rolled a-|way, And|
w: shine a- mong|men. Ye|sor- row- ing|wo- men who|hi- ther have|sped, Why|
w: suf- fered no|loss. O|flock, scat- tered|wide- ly, re-|turn to the|fold: Thy|
w: Lord’s might- y|deed, Pro-|claim- ing the|Sav- ior who|died for all|men, And,|
w: har- vests will|grow; And|soon shall the|Sow- er re-|turn to His|field With|
 [Fd]2 [GB]2 [GB]2 | [Ec]2 [FA]2 [FA]2 | [FB]2 [GB]2 [EA]2 | [DF]4 E2 | [DF]2 [DG]2 [EG]2 | %26
w: fled are the|watch- ers in|fear and dis-|may; Hell|trem- bles be-|
w: seek ye the|liv- ing to-|day ’mongst the|dead? For|Je- sus is|
w: Shep- herd still|liv- eth, and|now as of|old, He|lead- eth thee|
w: hav- ing a-|ris- en, now|liv- eth a-|gain, First-|fruits of the|
w: an- gels to|ga- ther its|hea- ven- ly|yield, From|e- vil tares|
 [EA]2 D2 [DG]2 | [DF]4 E2 | D4 |] %29
w: fore Him. Hal-|le- lu-|jah.|
w: ris- en. Hal-|le- lu-|jah.|
w: God- ward. Hal-|le- lu-|jah.|
w: sleep- ing. Hal-|le- lu-|jah.|
w: se- vered. Hal-|le- lu-|jah.|
V:2
 D2 | x6 | x6 | x6 | x6 | x6 | x6 | x4 (DC) | D4 D2 | x6 | x6 | x6 | x6 | x6 | x6 | x4 (DC) | %16
 D4 D2 | x4 E2 | x6 | x6 | x6 | x6 | x6 | x6 | x4 E2 | x6 | x2 D2 x2 | x4 (DC) | D4 |] %29
V:3
 [D,F,]2 | [C,A,]2 [F,A,]2 [D,F,]2 | [C,^G,]2 [F,A,]2 [C,A,]2 | [D,A,]2 A,2 D2 | [A,C]4 [D,A,]2 | %5
 [E,G,]2 [C,E,]2 [F,A,]2 | [B,,F,]2 [F,A,]2 [F,A,]2 | [E,B,]2 A,2 [A,,A,]2 | [D,F,]4 [D,F,]2 | %9
 [C,A,]2 [F,A,]2 [D,F,]2 | [C,^G,]2 [F,A,]2 [C,A,]2 | [D,A,]2 A,2 D2 | [A,C]4 [D,A,]2 | %13
 [E,G,]2 [C,E,]2 [F,A,]2 | [B,,F,]2 [F,A,]2 [F,A,]2 | [E,B,]2 A,2 [A,,A,]2 | [D,F,]4 [B,,F,]2 | %17
 [F,A,]2 [D,F,]2 [C,A,]2 | [D,A,]2 [B,,B,]2 [E,B,]2 | [C,A,]2 [F,A,]2 [E,^G,]2 | [A,,A,]4 [F,C]2 | %21
 B,2 [G,D]2 [E,E]2 | [A,C]2 [F,C]2 [D,D]2 | [B,,D]2 [G,,D]2 [A,,C]2 | [B,,F,]4 [C,A,]2 | %25
 [D,A,]2 [B,,B,]2 [E,B,]2 | [C,A,]2 [D,F,]2 [G,,B,]2 | [A,,A,]4 [A,,G,]2 | [D,F,]4 |] %29
V:4
 x2 | x6 | x6 | x2 A,2 (A,^G,) | x6 | x6 | x6 | x2 A,2 x2 | x6 | x6 | x6 | x2 A,2 (A,^G,) | x6 | %13
 x6 | x6 | x2 A,2 x2 | x6 | x6 | x6 | x6 | x6 | B,2 x4 | x6 | x6 | x6 | x6 | x6 | x6 | x4 |] %29

